X:34
T:Blue Six
C:David Peters (with Kelly Lancaster)
N:TablEdited by Steve Keating
L:1/8
Q:1/4=220
M:3/4
K:F
z6 | z6 | z6 | z6 | z6 | z6 | z6 | z6 | z6 | "Dm7"DF Ac ec | "Em7"de cG AF | "Dm7"DF Ac ec | 
"Em7"d6 | "Dm7"DF Ac ec | "Em7"dA (3cAG AF | "Dm7"DF Ac ec | "Em7"d6 | "Gm7"G,B, DF AF | 
"Am7"GD FC DB, | "Gm7"G,B, DF AF | "Am7"G6 | "Dm7"DF Ac ec | "Em7"dA cG AF | "Dm7"DF Ac ec | 
"Em7"d2 ze de | "E"=Bd dd dd | d2 zd dA | "Eb"_dB AB AG | AB AG FD | "Dm7"zE EE EE | 
"Em7"E2 CD A,2 | "Dm7"A,6 | "A7"z2 EF EF | EE EE EE | EE EF EE | EE EE E2 | z6 | 
z2 EG EC | E2 CA, CD | EE z2 EF | EF EF GG | GA z2 FD | F2 FF FF | FF (3DCD FF | 
FG zA zc | cd/e/ cA cA | GG GG FD | FC DF C2 | C6 | z2 =Bd Bd | dd d4 | z2 _d2 dd | 
_dB AB AG | A6 | AA/E/ zA EE | A2 EA EA | EA DA ee | de fd ef | ee fe ef | ee fd ef | 
ce de ce | Ac eA ce | fc eA Be | zA zG z2 | F2 D2 C2 | zB AB AB | Fd BF zB | FA BG AB | 
FA DA DA | DA FE AF | DA CA A,A | DA FE AF | DA CA A,A | _Ae =BA eB | _Ae =BA eB | 
Ge BG eB | Ge BG eB | z2 {d}(3eee e2 | ed d2 dd | dc cc cc | cA (3dcA GA | GA AA AA | 
(3dcA GD GA | AA (3dcA GA | GA AA AA | (3dcA GA GA | G2 FG FD | CF DC DD | DD DD DD | 
DG Bd _d=d | _d=d _d=d _d=d | cd Bd (3ABA | GB AG FD | EF ED CE | DC A,G, (3EDE | 
(3FED (3EDE (3FED | (3EDE (3FED (3EDE | (3_AED (3EDE (3AED | (3EDE (3FED (3_AED | 
(3_EDE (3GED (3EDE | (3G_ED (3EDE (3GED | (3FED (3GED (3AEA | c2 d2 de | cA3 D2 | 
c2 zD DG, | e2 cA c2 | z2 FD FD | z2 DC DF | AF GA z2 | e2 cA cA | zF A2 c2 | 
A2 GA GF | D2 zG, (3C_ED | z2 fd fd | cB G2 BF | GA GF DC | Dz DD FG | _A=A A2 dc | 
fd c_A =Ac | (3_AGF DC FC | DF GD FD | E_A =Bd ef | _af ed =BA | _dB AB AG | AB AG ED | 
(3GAA AA (3GAA | (3GAA (3GAA (3GAA | (3cAA DA (3dAA | AA (3cAA (3dAA | (3eAA (3cAA (3dAA | 
(3eAA (3cAA (3dAA | (3eAA {=B}(3cAA (3dAA | (3eAA (3cAA (3eAA | (3fAA (3eAA (3fAA | 
(3gAA (3eAA gA | aA gA fA | ef eA dA | zd Bd fd | BG FD FC | DD CG, =B,G, | A,B, CD B,D | 
DF Bd ea | aa aa aa | _a=a _a=a _a=a | ga fa (3efe | df ed =BA | (3=BAB (3dBA (3BAA | 
(3BAB (3_dBA (3BAB | (3_dBA (3BAB A2 | F2 G2 GA | c2 d2 c2 | d/e/z cA c2 | A2 FD F2 | 
D6 | F2 z[AG] [eA][eA] | d2 (3AGF D2 | e2 (3AGF D2 | f2 (3AGF D2 | e2 (3AGF (3DFG | 
(3AGF (3DFG (3AGF | (3DFG (3AGF (3DFG | (3AGF (3DFG (3AGF | (3DGA (3BAG (3DGA | 
(3BAG (3DGA B2 | (3BAG (3DAB (3cBA | (3DBc (3dcB (3DAB | (3cBA (3DGA (3BAG | (3DFG (3AGF (3DEF | 
(3GFE (3CG,C (3G,A,C | CD D2 [A2D2] | EF _A=A =Bc | de f_a fe | eb (3gbg e_d | 
BB AG AG | AA AA AA | Ac dc dc | A_A z=A _A/z/D | A_A z=A _A=A | DD DD DD | [A_A]z DD DD | 
[A_A]z DD DD | [AF]z DD DD | [AG]z D[A_A] zD | [AB]z D[Ac] AD | [AB]z D[AG] zD | 
G,2 G,A, B,C | _D=D FD EF | GA cA Bc | df a2 ed | ee e2 _a=a | c'_a =ac' _a=a | 
c'_a (3a=ac' (3_a=ac' | (3_a=ac' (3_a=ac' =b2 | (3e'e'e' (3e'e'd' (3e'e'e' | (3a_ag (3_gfe (3_ed_d | 
(3c=B_B z2 e2 | BA GB AG | FD EF ED | _DE =DC B,G, | A,6 | z6 | DF Ac ec | de (3cAG AF | 
DF Ac ec | d6 | DF Ac ec | dA cG AF | DF Ac ec | d6 | G,B, DF AF | GD FC DB, | 
G,B, DF AF | G6 | DF Ac ec | dA (3cAG AF | DF Ac ec | cd dd dd | =Bd dd dd | d2 dd dA | 
_dB AB AG | AB AG ED | DE EE EE | E2 C2 A,2 | z[DA,] [D/A,/][D/A,/][D/A,/][D/A,/] [D/A,/][D/A,/][D/A,/][D/A,/] | 
[D6A,6] | z6 | z6 | 


